svgs/sharp-solid/square-nfi.svg

<svg xmlns="http://www.w3.org/2000/svg" viewBox="0 0 448 512"><!--! Font Awesome Pro 6.4.2 by @fontawesome - https://fontawesome.com License - https://fontawesome.com/license (Commercial License) Copyright 2023 Fonticons, Inc. --><path d="M448 32H0V480H448V32zM80 160h8 9.9l4.4 8.8L160 284.2V176 160h32v16V336v16H176h-8-9.9l-4.4-8.8L96 227.8V336v16H64V336 176 160H80zm160 0h64 16v32H304 256v32h48 16v32H304 256v80 16H224V336 240 176 160h16zm144 16V336v16H352V336 176 160h32v16z"/></svg>

<svg xmlns="http://www.w3.org/2000/svg" viewBox="0 0 448 512"><!--! Font Awesome Pro 6.6.0 by @fontawesome - https://fontawesome.com License - https://fontawesome.com/license (Commercial License) Copyright 2024 Fonticons, Inc. --><path d="M448 32L0 32 0 480l448 0 0-448zM80 160l8 0 9.9 0 4.4 8.8L160 284.2 160 176l0-16 32 0 0 16 0 160 0 16-16 0-8 0-9.9 0-4.4-8.8L96 227.8 96 336l0 16-32 0 0-16 0-160 0-16 16 0zm160 0l64 0 16 0 0 32-16 0-48 0 0 32 48 0 16 0 0 32-16 0-48 0 0 80 0 16-32 0 0-16 0-96 0-64 0-16 16 0zm144 16l0 160 0 16-32 0 0-16 0-160 0-16 32 0 0 16z"/></svg>
